symbols/web/text_snippet/materialsymbolssharp/text_snippet_wght200fill1_48px.svg

<svg xmlns="http://www.w3.org/2000/svg" height="48" width="48"><path d="M8 40V8h21.1L40 18.9V40Zm7-8.25h18V30.2H15Zm0-7h18v-1.5H15Zm0-6.95h11.35v-1.55H15Z"/></svg>

<svg xmlns="http://www.w3.org/2000/svg" height="48" width="48"><path d="M8 40V8H29.1L40 18.9V40ZM15 31.75H33V30.2H15ZM15 24.75H33V23.25H15ZM15 17.8H26.35V16.25H15Z"/></svg>
